build/finance/UAHSolid.svg

<svg xmlns="http://www.w3.org/2000/svg" fill="none" viewBox="0 0 24 24" focusable="false"><path d="M0 0H24V24H0z"/><path fill="#74767B" fill-rule="evenodd" d="M12 21C16.9706 21 21 16.9706 21 12C21 7.02944 16.9706 3 12 3C7.02944 3 3 7.02944 3 12C3 16.9706 7.02944 21 12 21ZM11.4531 8.02481C11.6732 7.91482 11.9158 7.85756 12.1619 7.85756L12.3452 7.85756C13.1195 7.85756 13.7471 8.48519 13.7471 9.25942C13.7471 9.61336 13.6134 9.95062 13.3785 10.2068L8.35264 10.2068C7.99365 10.2068 7.70264 10.4978 7.70264 10.8568C7.70264 11.2158 7.99365 11.5068 8.35264 11.5068L11.667 11.5068L10.3566 12.4778L8.35264 12.4778C7.99365 12.4778 7.70264 12.7688 7.70264 13.1278C7.70264 13.4868 7.99365 13.7778 8.35264 13.7778L9.33144 13.7778C9.21939 14.077 9.15989 14.3974 9.15989 14.7252C9.15989 16.2174 10.3695 17.4271 11.8617 17.4271L12.0451 17.4271C12.4929 17.4271 12.9345 17.3229 13.3351 17.1227L14.6876 16.4467C15.0087 16.2862 15.1389 15.8957 14.9784 15.5746C14.8179 15.2535 14.4275 15.1233 14.1064 15.2838L12.7539 15.9598C12.5338 16.0698 12.2911 16.1271 12.0451 16.1271L11.8617 16.1271C11.0875 16.1271 10.4599 15.4995 10.4599 14.7252C10.4599 14.3713 10.5936 14.034 10.8285 13.7778L15.8543 13.7778C16.2133 13.7778 16.5043 13.4868 16.5043 13.1278C16.5043 12.7688 16.2133 12.4778 15.8543 12.4778L12.5401 12.4778L13.8505 11.5068L15.8543 11.5068C16.2133 11.5068 16.5043 11.2158 16.5043 10.8568C16.5043 10.4978 16.2133 10.2068 15.8543 10.2068L14.8756 10.2068C14.9876 9.90762 15.0471 9.58724 15.0471 9.25942C15.0471 7.76722 13.8374 6.55756 12.3452 6.55756L12.1619 6.55756C11.7141 6.55756 11.2725 6.66178 10.8719 6.86197L9.51942 7.53798C9.19831 7.69848 9.06811 8.0889 9.22861 8.41001C9.38911 8.73112 9.77952 8.86132 10.1006 8.70082L11.4531 8.02481Z"/></svg>

<svg xmlns="http://www.w3.org/2000/svg" fill="none" viewBox="0 0 24 24" focusable="false"><path fill="#74767B" fill-rule="evenodd" d="M12 21a9 9 0 0 0 9-9c0-4.98-4.03-9-9-9-4.98 0-9 4.02-9 9 0 4.97 4.02 9 9 9m-.55-12.98c.22-.11.46-.17.71-.17h.18c.77 0 1.4.63 1.4 1.4 0 .36-.13.7-.37.95H8.35c-.36 0-.65.29-.65.65s.29.65.65.65h3.31l-1.31.97h-2c-.36 0-.65.29-.65.65s.29.65.65.65h.98c-.12.3-.18.62-.18.95 0 1.49 1.21 2.7 2.71 2.7h.18c.45 0 .89-.1 1.29-.3l1.35-.68a.649.649 0 0 0-.58-1.16l-1.35.67c-.22.11-.46.17-.71.17h-.18c-.78 0-1.41-.63-1.41-1.4 0-.35.14-.69.37-.95h5.03c.36 0 .65-.29.65-.65s-.29-.65-.65-.65h-3.31l1.31-.97h2c.36 0 .65-.29.65-.65s-.29-.65-.65-.65h-.98a2.701 2.701 0 0 0-2.53-3.65h-.18c-.45 0-.89.11-1.29.31l-1.36.67c-.32.16-.45.55-.29.88.16.32.55.45.88.29z"/></svg>
